svg/light-bulb.svg

<svg xmlns="http://www.w3.org/2000/svg" viewBox="0 0 48 64" enable-background="new 0 0 48 64"><style type="text/css">.st0{fill:#343434;}</style><title>light-bulb</title><desc>Created with Sketch.</desc><path class="st0" d="M24 0c-13.3 0-24 10.7-24 24 0 8.5 4.4 15.9 11 20.2v14.8c0 2.8 2.2 5 5 5h16c2.8 0 5-2.2 5-5v-14.8c6.6-4.3 11-11.7 11-20.2 0-13.3-10.7-24-24-24zm9 59c0 .5-.4 1-1 1h-16c-.5 0-1-.5-1-1v-1h7c1.1 0 2-.9 2-2s-.9-2-2-2h-7v-3h18v8zm0-17.1v5.1h-3v-29c0-1.1-.9-2-2-2s-2 .9-2 2v29h-4v-23c0-1.1-.9-2-2-2s-2 .9-2 2v23h-3v-5.1c-6.5-3.3-11-10.1-11-17.9 0-11 9-20 20-20s20 9 20 20c0 7.8-4.5 14.6-11 17.9z"/></svg>

<svg xmlns="http://www.w3.org/2000/svg" viewBox="0 0 48 64"><path d="M24 0C10.7 0 0 10.7 0 24c0 8.5 4.4 15.9 11 20.2V59c0 2.8 2.2 5 5 5h16c2.8 0 5-2.2 5-5V44.2c6.6-4.3 11-11.7 11-20.2C48 10.7 37.3 0 24 0zm9 59c0 .5-.4 1-1 1H16c-.5 0-1-.5-1-1v-1h7c1.1 0 2-.9 2-2s-.9-2-2-2h-7v-3h18v8zm0-17.1V47h-3V18c0-1.1-.9-2-2-2s-2 .9-2 2v29h-4V24c0-1.1-.9-2-2-2s-2 .9-2 2v23h-3v-5.1C8.5 38.6 4 31.8 4 24 4 13 13 4 24 4s20 9 20 20c0 7.8-4.5 14.6-11 17.9z" fill="#343434"/></svg>
